X: 43142
T: Winnie Hayes'
R: jig
M: 6/8
K: Gdorian
dcA G3|AGF G3|dcA G2 B|A2F FAc|
dcA G3|AGF G2g|gfd cdf|gfd cAF:|
|:def g3|agf g2f|d2 g gfg|a3fga|
b3a3|gfd g2 a|gfd cdf|gfd cAF:|

